X:1
T:James Gibb editions
T:Ave maris stella - Palestrina
T:#
%%score [ 1 2 3 4 ]
L:1/8
Q:1/4=200
M:none
K:F
V:1 treble nm="Soprano" snm="S"
V:2 treble nm="Alto" snm="A"
V:3 treble-8 nm="Tenor" snm="T"
V:4 bass nm="Bass" snm="B"
V:1
 x16 x8 ||"^Giovanni Pierluigi da Palestrina\n(1526-94)"!pp!"^Ave maris stella"[Q:1/4=200] !>!d16 | %2
w: |De-|
 d8 G8 | A8 (c8- | c4 B4 A8) | G12 !>!d4- | d4 c4 d8 | G4 (c2 B2 A2 G2 G4- | G4 ^F4) G8- | G8 z8 | %10
w: i ma-|ter al\-||ma, De\-|* i ma-|ter al\- * * * *|* * ma||
 z8 B8 | A8 c8 | d16 | (G6 A2 B2 A2 A2 GF | G8) F8 | z8 A8 | c8 d4 d4 | c8 B4"^cresc." d4 | %18
w: at-|que sem-|per|vir\- * * * * * *|* go|fe-|lix coe- li|por- ta, fe-|
 f8[Q:1/4=196] c8 |[Q:1/4=190] _e8[Q:1/4=184] d8- |!pp![Q:1/4=175] d16 | %21
w: lix coe-|li por\-||
[Q:1/4=170] !fermata!=B16 |] %22
w: ta.|
V:2
 x16 x8 || z16 | z8!pp! !>!G8- | G4 F4 _E4 (C2 D2) | (_E2 F2 G8 ^F4) | G4 !>!B8 A4 | G12 F4 | %7
w: ||De\-|* i ma- ter *|al\- * * *|ma, De- i|ma- ter|
 _E16 | D16- | D8 F8 | E8 G8 | A8 (!>!G6 E2 | F2 G2 A4 D2 E2 F2 D2 | E2 F2) (!>!G6 F2) (!>!F4- | %14
w: al-|ma|* at-|que sem-|per, sem\- *||* * per * vir\-|
 F4 E4) F8 | A8 c4 (c2 B2 | A2 G2 F2 E2) D4 (!>!G4- | G4 ^F4) G4"^cresc." (D4- | %18
w: * * go,|fe- lix coe\- *|* * * * li por\-|* * ta, fe\-|
 D4 F6 G2) (A2 F2) | G8 ^F4!pp! (A4- | A2 G2 G8 ^F4) | !fermata!G16 |] %22
w: * * * lix *|coe- li por\-||ta.|
V:3
 G2 d2 e2 c2 d2 e2 g2 f2 e2 d2 c2 d2 || z8!pp! !>!g8- | g4 f4 _e8 | d8 (c2 d2 _e2 f2 | g4 G4 d8- | %5
w: A- ve * ma- ris * stel- la, * * * *|De\-|* i ma-|ter al\- * * *|* ma De\-|
 d8 d8 | G8 A8 | !>!c12 B4 | A8 G8 | B8 A8 | c8 d8 | d8 G8 | A8 B2 c2 d2 B2 | c2 d2 e4) d8 | %14
w: * i|ma- ter|al\- *|* ma|at- que|sem- per|vir- go|sem\- * * * *|* * * per|
 c8 F8- | F16 | z16 | z16 | z8"^cresc." A8 | c8 A8 |!pp! B8 A8 | !fermata!G16 |] %22
w: vir- go||||fe-|lix coe-|li por-|ta.|
V:4
 x16 x8 || z16 | z16 | z16 | z16 |!pp! G,12 F,4 | _E,8 D,8 | C,16 | D,8 z8 | %9
w: |||||De- i|ma- ter|al-|ma|
 G,8 (D,2 =E,2 F,2 G,2) | (A,8 G,4) G,4 | (F,4 E,2 D,2 E,8) | D,8 z8 | z16 | z8 A,8 | C8 A,8- | %16
w: at- que * * *|sem\- * per|vir\- * * *|go||fe-|lix coe\-|
 A,8 B,8 | A,8"^cresc." G,8 | D,8 x8 | C,8 D,8 |!pp! D,16 | !fermata!G,16 |] %22
w: * li|por- ta,|fe-|coe- li|por-|ta.|

